src/assets/outline/Pet.svg

<svg width="24" height="24" viewBox="0 0 24 24"  xmlns="http://www.w3.org/2000/svg">
<path d="M14.0402 22.75H9.2502C7.6302 22.75 6.1602 22.12 5.1002 20.96C4.0402 19.81 3.5302 18.29 3.6702 16.68C4.0102 12.58 7.6302 9.25 11.7502 9.25C15.5402 9.25 19.1202 12.29 19.7502 16.02C20.0502 17.8 19.6102 19.48 18.5302 20.76C17.4302 22.04 15.8402 22.75 14.0402 22.75ZM11.7402 10.75C8.3902 10.75 5.4402 13.47 5.1602 16.81C5.0602 18 5.4302 19.11 6.2002 19.95C6.9702 20.79 8.0502 21.25 9.2402 21.25H14.0302C15.3802 21.25 16.5702 20.73 17.3602 19.8C18.1502 18.87 18.4702 17.61 18.2502 16.27C17.7502 13.23 14.8302 10.75 11.7402 10.75Z" />
<path d="M10.4702 8.25C8.68022 8.25 7.22021 6.79 7.22021 5C7.22021 3.21 8.68022 1.75 10.4702 1.75C12.2602 1.75 13.7202 3.21 13.7202 5C13.7202 6.79 12.2702 8.25 10.4702 8.25ZM10.4702 3.25C9.51022 3.25 8.72022 4.04 8.72022 5C8.72022 5.96 9.51022 6.75 10.4702 6.75C11.4302 6.75 12.2202 5.96 12.2202 5C12.2202 4.04 11.4402 3.25 10.4702 3.25Z" />
<path d="M17.2998 9.4502C15.7798 9.4502 14.5498 8.22019 14.5498 6.7002C14.5498 5.1802 15.7798 3.9502 17.2998 3.9502C18.8198 3.9502 20.0498 5.1802 20.0498 6.7002C20.0498 8.22019 18.8198 9.4502 17.2998 9.4502ZM17.2998 5.4502C16.6098 5.4502 16.0498 6.0102 16.0498 6.7002C16.0498 7.3902 16.6098 7.9502 17.2998 7.9502C17.9898 7.9502 18.5498 7.3902 18.5498 6.7002C18.5498 6.0102 17.9898 5.4502 17.2998 5.4502Z" />
<path d="M21 13.4502C19.76 13.4502 18.75 12.4402 18.75 11.2002C18.75 9.9602 19.76 8.9502 21 8.9502C22.24 8.9502 23.25 9.9602 23.25 11.2002C23.25 12.4402 22.24 13.4502 21 13.4502ZM21 10.4502C20.59 10.4502 20.25 10.7902 20.25 11.2002C20.25 11.6102 20.59 11.9502 21 11.9502C21.41 11.9502 21.75 11.6102 21.75 11.2002C21.75 10.7902 21.41 10.4502 21 10.4502Z" />
<path d="M3.97021 11.4502C2.45021 11.4502 1.22021 10.2202 1.22021 8.7002C1.22021 7.1802 2.45021 5.9502 3.97021 5.9502C5.49021 5.9502 6.72021 7.1802 6.72021 8.7002C6.72021 10.2202 5.49021 11.4502 3.97021 11.4502ZM3.97021 7.4502C3.28021 7.4502 2.72021 8.0102 2.72021 8.7002C2.72021 9.3902 3.28021 9.9502 3.97021 9.9502C4.66021 9.9502 5.22021 9.3902 5.22021 8.7002C5.22021 8.0102 4.66021 7.4502 3.97021 7.4502Z" />
</svg>

<?xml version="1.0" encoding="UTF-8"?>
<svg width="24" height="24" viewBox="0 0 24 24" xmlns="http://www.w3.org/2000/svg">
 <path d="m14.04 22.75h-4.79c-1.62 0-3.09-0.63-4.15-1.79-1.06-1.15-1.57-2.67-1.43-4.28 0.34-4.1 3.96-7.43 8.08-7.43 3.79 0 7.37 3.04 8 6.77 0.3 1.78-0.14 3.46-1.22 4.74-1.1 1.28-2.69 1.99-4.49 1.99zm-2.3-12c-3.35 0-6.3 2.72-6.58 6.06-0.1 1.19 0.27 2.3 1.04 3.14s1.85 1.3 3.04 1.3h4.79c1.35 0 2.54-0.52 3.33-1.45s1.11-2.19 0.89-3.53c-0.5-3.04-3.42-5.52-6.51-5.52z"/>
 <path d="m10.47 8.25c-1.79 0-3.25-1.46-3.25-3.25s1.46-3.25 3.25-3.25c1.79 0 3.25 1.46 3.25 3.25s-1.45 3.25-3.25 3.25zm0-5c-0.95998 0-1.75 0.79-1.75 1.75s0.79 1.75 1.75 1.75c0.96 0 1.75-0.79 1.75-1.75s-0.78-1.75-1.75-1.75z"/>
 <path d="m17.3 9.4502c-1.52 0-2.75-1.23-2.75-2.75 0-1.52 1.23-2.75 2.75-2.75s2.75 1.23 2.75 2.75c0 1.52-1.23 2.75-2.75 2.75zm0-4c-0.69 0-1.25 0.56-1.25 1.25s0.56 1.25 1.25 1.25 1.25-0.56 1.25-1.25-0.56-1.25-1.25-1.25z"/>
 <path d="m21 13.45c-1.24 0-2.25-1.01-2.25-2.25s1.01-2.25 2.25-2.25 2.25 1.01 2.25 2.25-1.01 2.25-2.25 2.25zm0-3c-0.41 0-0.75 0.34-0.75 0.75s0.34 0.75 0.75 0.75 0.75-0.34 0.75-0.75-0.34-0.75-0.75-0.75z"/>
 <path d="m3.9702 11.45c-1.52 0-2.75-1.23-2.75-2.75s1.23-2.75 2.75-2.75 2.75 1.23 2.75 2.75-1.23 2.75-2.75 2.75zm0-4c-0.69 0-1.25 0.56-1.25 1.25s0.56 1.25 1.25 1.25 1.25-0.56 1.25-1.25-0.56-1.25-1.25-1.25z"/>
</svg>
